static/fa-brands_meetup.svg

<svg width="76" height="76" viewBox="0 0 76 76" fill="none" xmlns="http://www.w3.org/2000/svg">
<g clip-path="url(#clip0)" filter="url(#filter0_d)">
<rect x="18" y="23" width="36" height="30" fill="white"/>
<path d="M16.5422 58.6441C16.6926 59.4234 16.2278 60.1617 15.4485 60.3257C14.7102 60.4761 13.9582 60.0113 13.8078 59.232C13.6574 58.4937 14.1223 57.7144 14.8606 57.5504C15.5988 57.3863 16.3781 57.8648 16.5422 58.6441ZM36.1067 68.4058C35.2453 69.0347 35.0129 70.2379 35.6008 71.1402C36.2297 72.0425 37.4328 72.275 38.3352 71.6461C39.1965 71.0172 39.4289 69.814 38.8 68.9117C38.2258 68.023 37.009 67.7769 36.1067 68.4058ZM24.3488 5.20076C25.2102 5.00935 25.7571 4.14802 25.5656 3.28669C25.4153 2.38435 24.5539 1.83748 23.6926 2.04255C22.8313 2.23396 22.2844 3.09529 22.4485 3.95662C22.6399 4.85896 23.4875 5.40583 24.3488 5.20076ZM7.71018 32.941C6.34299 31.9976 4.46994 32.3531 3.52658 33.7613C2.58322 35.1285 2.93869 37.0425 4.30588 37.9859C5.67307 38.9566 7.54611 38.6148 8.48947 37.2066C9.43283 35.7847 9.07736 33.9117 7.71018 32.941ZM44.8977 9.57576C46.3469 8.71443 46.7707 6.84138 45.9504 5.43318C45.0891 3.98396 43.2571 3.51912 41.8489 4.38044C40.4406 5.24177 39.9758 7.11482 40.8371 8.56404C41.6574 9.97224 43.4895 10.4371 44.8977 9.57576ZM18.7707 17.5054C19.8235 16.7672 20.0559 15.3179 19.3586 14.2652C18.6613 13.2125 17.2121 12.9801 16.2004 13.6773C15.1477 14.4156 14.9153 15.8648 15.6125 16.9176C16.3098 17.984 17.7453 18.2164 18.7707 17.5054ZM69.6711 38.8336C68.6594 39.066 67.9895 40.0777 68.2219 41.1441C68.4133 42.1558 69.4387 42.8257 70.4504 42.5933C71.4621 42.4019 72.132 41.3765 71.8996 40.3238C71.6945 39.3121 70.6828 38.6422 69.6711 38.8336ZM75.0988 31.0679C74.9485 30.2886 74.1965 29.8238 73.4582 29.9742C72.6789 30.1246 72.2141 30.9176 72.3645 31.6968C72.5149 32.4351 73.2668 32.941 74.0461 32.7906C74.7844 32.5855 75.2903 31.8472 75.0988 31.0679ZM64.1203 20.9918C62.9445 21.8121 62.6711 23.4117 63.4504 24.5875C64.2297 25.7633 65.8293 26.0367 67.0051 25.2574C68.1399 24.4371 68.4133 22.8375 67.634 21.6617C66.8547 20.4722 65.2551 20.1715 64.1203 20.9918ZM63.259 40.0504C66.8547 45.9429 65.3235 53.7222 59.6633 57.7007C57.2844 59.3824 54.591 60.1207 51.884 60.0386C50.2434 66.4781 42.3957 68.8707 37.5149 64.4957C37.3645 64.6187 37.1594 64.7281 37.009 64.8922C31.6633 68.5972 24.3899 67.2711 20.6848 61.8433C19.3586 59.8883 18.6887 57.6597 18.6203 55.4312C9.67893 53.941 6.31564 42.5797 13.0012 36.3316C9.13205 29.9195 13.0832 21.648 20.302 20.6226C23.7336 11.5718 35.0129 7.27888 42.6692 13.2125C51.884 10.1636 61.3039 17.232 60.5656 27.0347C66.1848 28.7574 67.7844 36.1812 63.259 40.0504ZM53.6887 50.2086C53.2649 47.3922 48.0969 49.5797 47.7961 46.5035C47.3723 42.1285 53.7707 32.6812 53.2649 29.0035C52.8 25.7222 50.6125 25.025 48.6985 24.984C46.8664 24.9429 46.3879 25.2574 45.7727 25.6129C45.3762 25.8453 44.8703 26.2828 44.1731 25.5718C43.3117 24.7515 42.6555 23.9722 41.5207 23.8082C39.8391 23.5347 39.1008 24.0816 37.884 25.1343C37.4192 25.5308 36.2434 26.898 35.1496 26.3785C34.6848 26.1461 33.0442 25.3258 31.8684 24.8199C29.6399 23.8492 26.3996 25.4488 25.2238 27.5543C23.4602 30.6851 20.0285 43.0172 19.5227 44.6578C18.3469 48.2945 21.0129 51.3023 24.5676 51.0972C26.0852 51.0152 27.0696 50.4683 28.0403 48.7183C28.5871 47.7066 33.7414 33.9937 34.1379 33.3238C34.4113 32.859 35.3547 32.2301 36.134 32.6265C36.9133 33.0504 37.0774 33.9117 36.9543 34.691C36.8039 36.0172 33.1262 44.3843 33.0031 45.314C32.5383 48.4449 36.6809 48.9507 38.2805 45.8609C38.7863 44.8902 44.5285 33.2008 45.0344 32.4215C45.6223 31.5601 46.0461 31.2867 46.634 31.3277C47.0578 31.3277 47.7688 31.4508 47.6047 32.8179C47.4133 34.1031 42.8059 42.7027 42.2863 44.8082C41.6574 47.6246 43.1887 50.4683 45.6906 51.7261C47.2492 52.5054 54.2356 53.8726 53.6887 50.2086ZM54.468 62.8277C53.0598 63.8394 52.7043 65.8355 53.6887 67.2847C54.6594 68.7339 56.6145 69.0757 58.0637 68.105C59.5129 67.0933 59.8547 65.0972 58.884 63.648C57.8723 62.1988 55.9172 61.8023 54.468 62.8277Z" fill="#F14141"/>
</g>
<defs>
<filter id="filter0_d" x="0" y="0" width="76" height="76" filterUnits="userSpaceOnUse" color-interpolation-filters="sRGB">
<feFlood flood-opacity="0" result="BackgroundImageFix"/>
<feColorMatrix in="SourceAlpha" type="matrix" values="0 0 0 0 0 0 0 0 0 0 0 0 0 0 0 0 0 0 127 0"/>
<feOffset dy="1"/>
<feGaussianBlur stdDeviation="1.5"/>
<feColorMatrix type="matrix" values="0 0 0 0 0 0 0 0 0 0 0 0 0 0 0 0 0 0 0.25 0"/>
<feBlend mode="normal" in2="BackgroundImageFix" result="effect1_dropShadow"/>
<feBlend mode="normal" in="SourceGraphic" in2="effect1_dropShadow" result="shape"/>
</filter>
<clipPath id="clip0">
<rect width="70" height="70" fill="white" transform="translate(3 2)"/>
</clipPath>
</defs>
</svg>

<svg width="76" height="76" fill="none" xmlns="http://www.w3.org/2000/svg"><g clip-path="url(#a)" filter="url(#b)"><path fill="#fff" d="M18 23h36v30H18z"/><path d="M16.542 58.644c.15.78-.314 1.518-1.094 1.682a1.385 1.385 0 0 1-1.64-1.094c-.15-.738.314-1.518 1.053-1.682a1.422 1.422 0 0 1 1.681 1.094zm19.565 9.762a2.024 2.024 0 0 0-.506 2.734c.629.903 1.832 1.135 2.734.506a1.977 1.977 0 0 0 .465-2.734c-.574-.889-1.791-1.135-2.693-.506zM24.349 5.2a1.608 1.608 0 0 0 1.217-1.914 1.527 1.527 0 0 0-1.873-1.244c-.862.191-1.409 1.052-1.245 1.914.192.902 1.04 1.449 1.9 1.244zM7.71 32.94a2.984 2.984 0 0 0-4.183.82c-.944 1.367-.588 3.281.779 4.225 1.367.97 3.24.629 4.183-.78a3.104 3.104 0 0 0-.779-4.265zM44.898 9.576c1.449-.862 1.873-2.735 1.052-4.143-.86-1.449-2.693-1.914-4.101-1.053-1.408.862-1.873 2.735-1.012 4.184a2.93 2.93 0 0 0 4.06 1.012zm-26.127 7.93c1.052-.739 1.285-2.188.588-3.24-.698-1.053-2.147-1.286-3.159-.589-1.052.739-1.285 2.188-.587 3.24.697 1.067 2.132 1.3 3.158.588zm50.9 21.328a1.937 1.937 0 0 0-1.45 2.31c.192 1.012 1.218 1.682 2.23 1.45 1.011-.192 1.681-1.218 1.449-2.27-.206-1.012-1.217-1.682-2.229-1.49zm5.428-7.766a1.385 1.385 0 0 0-1.64-1.094c-.78.15-1.245.944-1.094 1.723.15.738.902 1.244 1.681 1.094.738-.205 1.244-.944 1.053-1.723zM64.12 20.992c-1.176.82-1.449 2.42-.67 3.595.78 1.176 2.38 1.45 3.555.67 1.135-.82 1.408-2.42.629-3.595-.78-1.19-2.379-1.49-3.514-.67zM63.26 40.05c3.596 5.893 2.064 13.672-3.596 17.65a12.662 12.662 0 0 1-7.779 2.339c-1.64 6.44-9.488 8.832-14.37 4.457-.15.123-.355.232-.505.396-5.346 3.705-12.62 2.38-16.324-3.049a12.045 12.045 0 0 1-2.065-6.412c-8.941-1.49-12.304-12.851-5.619-19.1-3.869-6.412.082-14.683 7.301-15.708 3.432-9.051 14.71-13.344 22.367-7.41 9.215-3.05 18.635 4.019 17.897 13.822 5.619 1.722 7.218 9.146 2.693 13.015zm-9.57 10.159c-.424-2.817-5.592-.63-5.893-3.706-.424-4.374 5.975-13.822 5.469-17.5-.465-3.28-2.653-3.978-4.566-4.019-1.833-.041-2.311.273-2.926.629-.397.232-.903.67-1.6-.041-.861-.82-1.517-1.6-2.652-1.764-1.682-.273-2.42.274-3.637 1.326-.465.397-1.64 1.764-2.734 1.244-.465-.232-2.106-1.052-3.282-1.558-2.228-.97-5.468.629-6.644 2.734-1.764 3.131-5.195 15.463-5.701 17.104-1.176 3.636 1.49 6.644 5.045 6.44 1.517-.083 2.502-.63 3.472-2.38.547-1.011 5.701-14.724 6.098-15.394.273-.465 1.217-1.094 1.996-.697.78.423.943 1.285.82 2.064-.15 1.326-3.828 9.693-3.95 10.623-.466 3.13 3.677 3.637 5.277.547.505-.97 6.248-12.66 6.753-13.44.588-.86 1.012-1.134 1.6-1.093.424 0 1.135.123.97 1.49-.19 1.285-4.798 9.885-5.318 11.99-.629 2.817.903 5.66 3.405 6.918 1.558.78 8.545 2.147 7.998-1.517zm.779 12.619c-1.408 1.011-1.764 3.007-.78 4.457.971 1.449 2.926 1.79 4.376.82 1.449-1.012 1.79-3.008.82-4.457-1.012-1.45-2.967-1.846-4.416-.82z" fill="#F14141"/></g><defs><clipPath id="a"><path fill="#fff" transform="translate(3 2)" d="M0 0h70v70H0z"/></clipPath><filter id="b" x="0" y="0" width="76" height="76" filterUnits="userSpaceOnUse" color-interpolation-filters="sRGB"><feFlood flood-opacity="0" result="BackgroundImageFix"/><feColorMatrix in="SourceAlpha" values="0 0 0 0 0 0 0 0 0 0 0 0 0 0 0 0 0 0 127 0"/><feOffset dy="1"/><feGaussianBlur stdDeviation="1.5"/><feColorMatrix values="0 0 0 0 0 0 0 0 0 0 0 0 0 0 0 0 0 0 0.25 0"/><feBlend in2="BackgroundImageFix" result="effect1_dropShadow"/><feBlend in="SourceGraphic" in2="effect1_dropShadow" result="shape"/></filter></defs></svg>
